X: 1
T: Saint Anne's Reel
T: Reel de Sainte Agathe
O: trad. Qu\'ebec
R: reel
S: Fiddle Hell Online 2020-11-05
Z: 2021 John Chambers <jc:trillian.mit.edu>
M: C|
L: 1/8
K: D
|: Ad |\
"D"f2fg (fe)dB | (3(ABA) FA (DF)Ad | "G"B2GB (DG)Bd | "D"A2FA (DF)Ad |
"D"f2fg (fe)dB | (3(ABA) FA (DF)Ad | "G"BGBd "A"cAce | "D"(dc)de d2 :|
|: ag |\
"D"fdAd fdAd | "G"(ag)gf g2 ((3vfgf | "A"e)dcB Aceg | "D"(ba)a^g a2a=g |
"D"fdAd fdAd | "G"(ag)gf g2 ((3vfgf | "A"e)dcB AGFE | "D"DCDE D2 :|
